brandFactory_export/3.Masa/Añadir bloque consulta_3Masa.svg

<?xml version="1.0" encoding="UTF-8"?>
<svg width="24px" height="24px" viewBox="0 0 24 24" version="1.1" xmlns="http://www.w3.org/2000/svg" xmlns:xlink="http://www.w3.org/1999/xlink">
    <title>3.Masa/Añadir bloque consulta_3Masa</title>
    <g id="Symbols" stroke="none" stroke-width="1" fill="none" fill-rule="evenodd">
        <g id="3.Masa/Añadir-bloque-consulta_3Masa" fill="#5CB615" fill-rule="nonzero">
            <path d="M10.8134454,13.1596639 C11.2201681,13.1596639 11.5529412,13.4857143 11.5529412,13.8857143 C11.5529412,14.2857143 11.2235294,14.6117647 10.8134454,14.6117647 L7.96302521,14.6117647 L7.96302521,17.4218487 C7.96302521,17.8218487 7.63361345,18.1478992 7.22352941,18.1478992 C6.81680672,18.1478992 6.48403361,17.8218487 6.48403361,17.4218487 L6.48403361,14.6117647 L3.64033613,14.6117647 C3.23361345,14.6117647 2.90084034,14.2857143 2.90084034,13.8857143 C2.90084034,13.4857143 3.2302521,13.1596639 3.64033613,13.1596639 L6.48403361,13.1596639 L6.48403361,10.389916 C6.48403361,9.98991597 6.81344538,9.66386555 7.22352941,9.66386555 C7.6302521,9.66386555 7.96302521,9.98991597 7.96302521,10.389916 L7.96302521,13.1596639 L10.8134454,13.1596639 Z M9.95630252,4.01344538 C8.53445378,3.59327731 7.67058824,3.02521008 7.43865546,2.36638655 C7.43865546,2.35630252 7.43865546,2.35630252 7.42857143,2.34621849 C7.65714286,1.6907563 8.5210084,1.1092437 9.93277311,0.68907563 C11.4319328,0.248739496 13.4117647,0 15.512605,0 C17.6134454,0 19.5932773,0.248739496 21.0823529,0.68907563 C22.5714286,1.12941176 23.4117647,1.71092437 23.6,2.4 C23.6,2.4 23.589916,2.41008403 23.589916,2.42016807 C23.3378151,3.05546218 22.4840336,3.60336134 21.0957983,4.01344538 C19.5966387,4.45378151 17.6268908,4.70252101 15.5260504,4.70252101 C13.4252101,4.70252101 11.4554622,4.45378151 9.95630252,4.01344538 L9.95630252,4.01344538 Z M12.8,12.4605042 C12.7663866,12.2890756 12.7260504,12.1142857 12.6756303,11.9394958 C12.5680672,11.5596639 12.4134454,11.1764706 12.2117647,10.8 C12.1277311,10.6453782 12.0336134,10.4941176 11.9294118,10.3428571 C11.9193277,10.3294118 11.9092437,10.312605 11.8957983,10.2991597 C11.8016807,10.1680672 11.697479,10.0369748 11.5865546,9.91596639 C11.5596639,9.88907563 11.5361345,9.86218487 11.5092437,9.83529412 C11.405042,9.72436975 11.2941176,9.62016807 11.1731092,9.51932773 L11.0521008,9.41848739 C10.9378151,9.32773109 10.8134454,9.24369748 10.6857143,9.16302521 C10.6319328,9.12605042 10.5747899,9.08907563 10.5176471,9.05546218 C10.3932773,8.98151261 10.2554622,8.91764706 10.1176471,8.85378151 C10.0470588,8.82016807 9.97647059,8.78319328 9.90252101,8.75294118 C9.76134454,8.69579832 9.60672269,8.6487395 9.45210084,8.59831933 C9.36806723,8.57142857 9.28739496,8.54117647 9.19663866,8.51764706 C9.02521008,8.47394958 8.84033613,8.44033613 8.65210084,8.41008403 C8.56470588,8.39663866 8.48403361,8.37310924 8.39327731,8.36302521 C8.11092437,8.32605042 7.80840336,8.29915966 7.48907563,8.29243697 C7.45882353,8.29243697 7.41176471,8.28907563 7.36134454,8.28907563 C7.15966387,8.28907563 6.85714286,8.28571429 6.85714286,8.28571429 C4.8605042,8.30252101 1.5092437,9.05210084 1.5092437,13.8890756 C1.5092437,15.5630252 2.03697479,19.4689076 6.91764706,19.5361345 L7.12268908,19.5361345 C7.20672269,19.5361345 7.28403361,19.5361345 7.36134454,19.5327731 C7.41512605,19.5327731 7.47563025,19.5327731 7.52605042,19.5294118 C7.80168067,19.5260504 8.0605042,19.5058824 8.3092437,19.4756303 C8.38655462,19.4655462 8.4605042,19.4554622 8.53781513,19.4420168 C8.7092437,19.4184874 8.87394958,19.3882353 9.03193277,19.3512605 C9.10588235,19.3378151 9.17983193,19.3176471 9.25378151,19.3008403 C9.42521008,19.2571429 9.58655462,19.2067227 9.74453782,19.1495798 C9.78487395,19.1361345 9.82857143,19.1226891 9.86554622,19.1092437 C10.0470588,19.0386555 10.2151261,18.9613445 10.3764706,18.8739496 C10.4436975,18.8403361 10.5042017,18.8 10.5680672,18.7630252 C10.6621849,18.7058824 10.7563025,18.6487395 10.8436975,18.5882353 C10.907563,18.5445378 10.9714286,18.497479 11.0352941,18.4504202 C11.1159664,18.389916 11.189916,18.3226891 11.2638655,18.2588235 C11.3176471,18.2117647 11.3747899,18.1647059 11.4218487,18.1176471 C11.7277311,17.8184874 11.9663866,17.4857143 12.1647059,17.1428571 C12.8201681,16 12.9445378,14.712605 12.9445378,13.9226891 C12.9445378,13.805042 12.9411765,13.6739496 12.9344538,13.5361345 C12.9310924,13.502521 12.9310924,13.4621849 12.9277311,13.4285714 C12.9210084,13.3176471 12.9109244,13.2033613 12.897479,13.0857143 C12.8941176,13.0420168 12.887395,13.0016807 12.8806723,12.9546218 C12.8638655,12.8302521 12.8436975,12.702521 12.8201681,12.5714286 C12.8168067,12.5378151 12.810084,12.497479 12.8,12.4605042 L12.8,12.4605042 Z M15.5260504,11.0218487 C14.9848739,11.0218487 14.4571429,11.0016807 13.9394958,10.9680672 C14.0605042,11.3008403 14.1579832,11.6705882 14.2352941,12.0605042 C14.6588235,12.0840336 15.0890756,12.097479 15.5260504,12.097479 C17.7344538,12.097479 19.8252101,11.8386555 21.4117647,11.3647059 C22.3092437,11.1058824 23.0756303,10.7394958 23.6537815,10.2991597 L23.6537815,15.0756303 C23.3815126,15.5798319 22.5714286,16.2487395 21.092437,16.6890756 C19.6033613,17.1294118 17.6235294,17.3781513 15.5226891,17.3781513 C14.9142857,17.3781513 14.3260504,17.3546218 13.7546218,17.3109244 C13.5831933,17.687395 13.3915966,18.0336134 13.1731092,18.3361345 C13.9294118,18.4067227 14.712605,18.4537815 15.5260504,18.4537815 C17.7344538,18.4537815 19.8252101,18.194958 21.4117647,17.7243697 C22.3092437,17.4655462 23.0756303,17.0890756 23.6537815,16.6453782 L23.6537815,20.897479 C23.6537815,21.7378151 22.789916,22.4268908 21.0823529,22.9310924 C19.5831933,23.3714286 17.6033613,23.6201681 15.512605,23.6201681 C13.4218487,23.6201681 11.4420168,23.3747899 9.93277311,22.9310924 C8.28571429,22.4436975 7.43193277,21.7815126 7.37142857,20.9815126 C7.28739496,20.9815126 7.20672269,20.9848739 7.11932773,20.9848739 L6.89411765,20.9848739 C5.4487395,20.9647059 0.0302521008,20.4504202 0.0302521008,13.8823529 C0.0302521008,7.32436975 5.39831933,6.83697479 6.84369748,6.82689076 L6.98823529,6.82689076 C7.11260504,6.82689076 7.23697479,6.8302521 7.35798319,6.8302521 L7.35798319,3.9697479 C7.90588235,4.40336134 8.66218487,4.7697479 9.63361345,5.0487395 C11.2302521,5.52268908 13.3210084,5.78151261 15.5193277,5.78151261 C17.7176471,5.78151261 19.8084034,5.52268908 21.405042,5.0487395 C22.3563025,4.7697479 23.0991597,4.42352941 23.6470588,3.99327731 L23.6470588,8.72605042 C23.3747899,9.2302521 22.5647059,9.89915966 21.0857143,10.3394958 C19.6067227,10.7831933 17.6268908,11.0218487 15.5260504,11.0218487 L15.5260504,11.0218487 Z" id="Añadir-bloque-consulta_3Masa"></path>
        </g>
    </g>
</svg>

<svg width="24" height="24" viewBox="0 0 24 24" xmlns="http://www.w3.org/2000/svg"><path d="M10.813 13.16c.407 0 .74.326.74.726 0 .4-.33.726-.74.726h-2.85v2.81c0 .4-.33.726-.74.726a.735.735 0 01-.739-.726v-2.81H3.64a.735.735 0 01-.74-.726c0-.4.33-.726.74-.726h2.844v-2.77c0-.4.33-.726.74-.726.406 0 .739.326.739.726v2.77h2.85zm-.857-9.147c-1.422-.42-2.285-.988-2.517-1.647 0-.01 0-.01-.01-.02C7.657 1.691 8.52 1.11 9.933.69 11.432.25 13.412 0 15.513 0c2.1 0 4.08.249 5.57.69 1.488.44 2.329 1.02 2.517 1.71 0 0-.01.01-.01.02-.252.635-1.106 1.183-2.494 1.593-1.5.44-3.47.69-5.57.69s-4.07-.25-5.57-.69zm2.844 8.448a5.72 5.72 0 00-.588-1.66 5.088 5.088 0 00-.283-.458c-.01-.014-.02-.03-.033-.044a4.167 4.167 0 00-.31-.383c-.026-.027-.05-.054-.077-.08a3.765 3.765 0 00-.336-.317l-.12-.1a4.169 4.169 0 00-.367-.256 2.86 2.86 0 00-.168-.108c-.125-.073-.263-.137-.4-.201-.07-.034-.142-.07-.215-.101-.142-.057-.296-.104-.45-.155-.085-.027-.166-.057-.256-.08a6.245 6.245 0 00-.545-.108c-.087-.013-.168-.037-.259-.047a8.299 8.299 0 00-.904-.07c-.03 0-.077-.004-.128-.004-.201 0-.504-.003-.504-.003-1.996.017-5.348.766-5.348 5.603 0 1.674.528 5.58 5.409 5.647h.205c.084 0 .161 0 .238-.003.054 0 .115 0 .165-.004a7.167 7.167 0 001.012-.087c.171-.024.336-.054.494-.09.074-.014.148-.034.222-.051.171-.044.333-.094.49-.151l.122-.04c.181-.071.35-.149.51-.236.068-.034.128-.074.192-.111a5.515 5.515 0 00.467-.313c.081-.06.155-.127.229-.191.054-.047.11-.094.158-.141.306-.3.544-.632.743-.975.655-1.143.78-2.43.78-3.22 0-.118-.004-.25-.01-.387-.004-.033-.004-.074-.007-.107a6.467 6.467 0 00-.03-.343c-.004-.044-.01-.084-.017-.131a8.97 8.97 0 00-.081-.494zm2.726-1.44c-.541 0-1.069-.02-1.587-.053.122.333.219.703.296 1.093.424.023.854.036 1.291.036 2.208 0 4.3-.258 5.886-.732.897-.26 1.664-.626 2.242-1.066v4.777c-.272.504-1.083 1.173-2.562 1.613-1.489.44-3.468.69-5.57.69-.608 0-1.196-.024-1.767-.068a5.992 5.992 0 01-.582 1.025c.756.07 1.54.118 2.353.118 2.208 0 4.3-.259 5.886-.73.897-.258 1.664-.635 2.242-1.079v4.252c0 .84-.864 1.53-2.572 2.034-1.499.44-3.479.69-5.57.69-2.09 0-4.07-.246-5.58-.69-1.646-.487-2.5-1.15-2.56-1.95-.085 0-.165.004-.253.004h-.225C5.45 20.965.03 20.45.03 13.882c0-6.558 5.368-7.045 6.814-7.055h.144c.125 0 .249.003.37.003V3.97c.548.433 1.304.8 2.276 1.079 1.596.474 3.687.733 5.885.733 2.199 0 4.29-.26 5.886-.733.951-.28 1.694-.625 2.242-1.056v4.733c-.272.504-1.082 1.173-2.561 1.613-1.48.444-3.46.683-5.56.683z" fill="#5CB615" fill-rule="nonzero"/></svg>
